public/static/img/flag/kr.svg

<svg width="30" height="30" viewBox="0 0 30 30" fill="none" xmlns="http://www.w3.org/2000/svg">
<circle cx="15" cy="15" r="13" fill="#E22D2D"/>
<mask id="mask0_136_1771" style="mask-type:alpha" maskUnits="userSpaceOnUse" x="2" y="2" width="26" height="26">
<circle cx="15" cy="15" r="13" fill="#CE1126"/>
</mask>
<g mask="url(#mask0_136_1771)">
<path fill-rule="evenodd" clip-rule="evenodd" d="M19.7088 6.02505L19.3502 5L18.9903 6.02531L17.8549 6.03332L18.7111 6.70997L18.3883 7.82851L19.3502 7.17071L20.3121 7.82851L19.967 6.72469L20.8442 6.03306L19.7088 6.02505ZM24.0116 10.2208L23.653 9.19576L23.2931 10.2211L22.1577 10.2291L23.0139 10.9057L22.6912 12.0243L23.653 11.3665L24.6149 12.0243L24.2698 10.9205L25.147 10.2288L24.0116 10.2208ZM23.8632 16.3104L23.5046 15.2854L23.1447 16.3107L22.0093 16.3187L22.8655 16.9954L22.5427 18.1139L23.5046 17.4561L24.4665 18.1139L24.1214 17.0101L24.9986 16.3184L23.8632 16.3104ZM19.7088 20.4693L19.3502 19.4442L18.9903 20.4695L17.8549 20.4775L18.7111 21.1542L18.3883 22.2727L19.3502 21.6149L20.3121 22.2727L19.967 21.1689L20.8442 20.4773L19.7088 20.4693ZM10.745 10.1131L9.65105 6.81818L8.55732 10.1125L5.09357 10.1389L7.70118 12.314L6.71695 15.9091L9.65105 13.7951L12.5851 15.9091L11.5324 12.3614L14.2088 10.1394L10.745 10.1131Z" fill="#FCD116"/>
</g>
<g clip-path="url(#clip0_136_1771)">
<path d="M14.9835 0C23.2593 0 29.9671 6.70869 29.9671 14.9835C29.9671 23.2583 23.2593 29.968 14.9835 29.968C6.70781 29.968 0 23.2583 0 14.9835C0 6.70869 6.70781 0 14.9835 0Z" fill="#F0F0F0"/>
<path d="M20.1952 14.9837C20.1952 16.2872 17.8617 19.5439 14.9827 19.5439C12.1054 19.5439 9.77197 16.2872 9.77197 14.9837C9.77197 12.1055 12.1054 9.77197 14.9827 9.77197C17.8617 9.77197 20.1952 12.1055 20.1952 14.9837Z" fill="#D80027"/>
<path d="M20.1952 14.9834C20.1952 17.8635 17.8617 20.196 14.9827 20.196C12.1054 20.196 9.77197 17.8635 9.77197 14.9834" fill="#0052B4"/>
<path d="M20.5114 19.5912L21.8943 18.2093L22.8147 19.1306L21.4328 20.5125L20.5114 19.5912ZM18.2072 21.8945L19.5901 20.5125L20.5114 21.4339L19.1286 22.8158L18.2072 21.8945ZM23.2762 22.3542L24.6573 20.9723L25.5777 21.8936L24.1976 23.2756L23.2762 22.3542ZM20.9722 24.6575L22.355 23.2756L23.2754 24.1969L21.8934 25.5788L20.9722 24.6575ZM21.8934 20.9723L23.2762 19.5903L24.1967 20.5116L22.8147 21.8936L21.8934 20.9723ZM21.8947 22.8139L20.5127 24.1959L19.5914 23.2746L20.9734 21.8926L21.8947 22.8139ZM23.2762 10.3772L19.5911 6.691L20.5124 5.77072L24.1976 9.45586L23.2762 10.3772ZM19.5911 9.45686L18.2082 8.07492L19.1295 7.15362L20.5124 8.53556L19.5911 9.45686ZM21.8943 11.7592L20.5114 10.3772L21.4328 9.45586L22.8156 10.8379L21.8943 11.7592ZM21.8923 4.38949L23.2743 5.77143L22.3529 6.6927L20.971 5.31076L21.8923 4.38949ZM24.6583 8.99622L23.2754 7.61429L24.1967 6.6929L25.5796 8.07492L24.6583 8.99622ZM5.30984 20.9733L8.996 24.6584L8.07283 25.5798L4.38857 21.8945L5.30984 20.9733ZM8.99509 21.8936L10.3761 23.2756L9.45675 24.1969L8.07379 22.8148L8.99509 21.8936ZM6.69177 19.5903L8.0747 20.9723L7.1534 21.8936L5.7705 20.5116L6.69177 19.5903ZM8.07379 18.2083L11.76 21.8936L10.8368 22.8148L7.15244 19.1297L8.07379 18.2083ZM8.99509 5.31006L5.30884 8.99522L4.38757 8.07393L8.07379 4.38867L8.99509 5.31006ZM5.76948 9.45589L9.4547 5.77066L10.376 6.69199L6.69081 10.3772L5.76948 9.45589ZM11.76 8.07492L8.07379 11.7611L7.15244 10.8388L10.8387 7.15362L11.76 8.07492Z" fill="black"/>
</g>
<defs>
<clipPath id="clip0_136_1771">
<rect width="30" height="30" fill="white"/>
</clipPath>
</defs>
</svg>

<svg width="30" height="30" fill="none" xmlns="http://www.w3.org/2000/svg"><circle cx="15" cy="15" r="13" fill="#E22D2D"/><mask id="a" style="mask-type:alpha" maskUnits="userSpaceOnUse" x="2" y="2" width="26" height="26"><circle cx="15" cy="15" r="13" fill="#CE1126"/></mask><g mask="url(#a)"><path fill-rule="evenodd" clip-rule="evenodd" d="M19.709 6.025 19.35 5l-.36 1.025-1.135.008.856.677-.323 1.119.962-.658.962.658-.345-1.104.877-.692-1.135-.008Zm4.303 4.196-.359-1.025-.36 1.025-1.135.008.856.677-.323 1.118.962-.657.962.657-.345-1.103.877-.692-1.135-.008Zm-.149 6.09-.358-1.026-.36 1.026-1.136.008.857.676-.323 1.119.962-.658.962.658-.346-1.104.878-.692-1.136-.008Zm-4.154 4.158-.359-1.025-.36 1.026-1.135.008.856.676-.323 1.119.962-.658.962.658-.345-1.104.877-.692-1.135-.008Zm-8.964-10.356L9.651 6.818l-1.094 3.295-3.463.026L7.7 12.314l-.984 3.595 2.934-2.114 2.934 2.114-1.053-3.548 2.677-2.222-3.464-.026Z" fill="#FCD116"/></g><g clip-path="url(#b)"><path d="M14.983 0c8.276 0 14.984 6.709 14.984 14.983 0 8.275-6.708 14.985-14.983 14.985C6.707 29.968 0 23.258 0 14.983 0 6.71 6.708 0 14.983 0Z" fill="#F0F0F0"/><path d="M20.195 14.984c0 1.303-2.333 4.56-5.212 4.56-2.878 0-5.211-3.257-5.211-4.56a5.212 5.212 0 1 1 10.423 0Z" fill="#D80027"/><path d="M20.195 14.983a5.212 5.212 0 1 1-10.423 0" fill="#0052B4"/><path d="m20.511 19.591 1.383-1.382.92.922-1.381 1.381-.922-.92Zm-2.304 2.303 1.383-1.381.921.92-1.382 1.383-.922-.921Zm5.07.46 1.38-1.382.92.922-1.38 1.382-.92-.922Zm-2.305 2.303 1.383-1.381.92.92-1.382 1.383-.92-.922Zm.921-3.685 1.383-1.382.92.922-1.381 1.382-.922-.922Zm.002 1.842-1.382 1.382-.922-.921 1.382-1.382.922.92Zm1.381-12.437-3.685-3.686.921-.92 3.686 3.685-.922.921Zm-3.685-.92-1.383-1.382.922-.921 1.382 1.382-.92.92Zm2.303 2.302-1.383-1.382.922-.921 1.383 1.382-.922.921Zm-.002-7.37 1.382 1.382-.921.922L20.97 5.31l.921-.922Zm2.766 4.607-1.383-1.382.922-.921 1.383 1.382-.922.921ZM5.31 20.973l3.686 3.685-.923.922-3.684-3.685.92-.922Zm3.685.92 1.381 1.383-.92.92-1.382-1.381.921-.921ZM6.692 19.59l1.383 1.382-.922.922-1.382-1.382.92-.922Zm1.382-1.382 3.686 3.686-.923.92-3.685-3.684.922-.922ZM8.995 5.31 5.31 8.995l-.921-.921 3.686-3.685.921.921ZM5.77 9.456 9.455 5.77l.921.921-3.685 3.685-.922-.921Zm5.991-1.381L8.074 11.76l-.922-.922 3.687-3.685.921.92Z" fill="#000"/></g><defs><clipPath id="b"><path fill="#fff" d="M0 0h30v30H0z"/></clipPath></defs></svg>
